!!!!SEGMENT: pl-wtm--r-90-n--003_noskowski-zygmunt--piesni-op-63-hej-wiosna.krn
!!!cenid: 18xx:2122
!!!COM: Noskowski, Zygmunt
!!!COM-rismID: pe106604
!!!CDT: 1846/05/02-1909/07/23
!!!CNT: Polish
!!!GTL: Pieśni op. 63
!!!OTL: Hej wiosna
!!!OMV: 003
!!!PDT: 1899
!!!AGN: Secular; Song
!!!SMS-siglum: PL-Wtm
!!!SMS-shelfmark: R 90/N
!!!SMS-shelfwork: 001-003 G
!!!SMS-variant:
!!!SMS-altvar:
!!!NIFC-rismSourceID: 1001099975
!!!NIFC-rismChildID: 1001099975
!!!NIFC-islandoraID:
!!!URL-pdf-islandora:
!!!URL-scan:
!!!IIIF:
!!!ONB-nifc: UWAGA: w zbiorze 10 krótkich pieśni
!!!OMD: Moderato.
!!!AIN: 1 empty
!!!key:
**kern	**kern	**text
*part1	*part1	*part1
*staff2	*staff1	*staff1
*Iempty	*Iempty	*
*I"	*I"	*
*clefF4	*clefG2	*
*k[b-]	*k[b-]	*
*F:	*F:	*
*M2/4	*M2/4	*
*>[A,B,A]	*>[A,B,A]	*>[A,B,A]
=1	=1	=1
*>A	*>A	*>A
!	!LO:TX:a:t=[segno]	!
8cL 8F\	16ccc\LL	.
.	16aa\	.
8cJ 8F\	16ccc\	.
.	16ddd\JJ	.
8cL 8F\	16bbn\LL	.
.	16aa\	.
8cJ 8F\	16gg\	.
.	16bb\JJ	.
=2	=2	=2
8cL 8F\	16ccc\LL	.
.	16aa\	.
8cJ 8F\	16gg\	.
.	16aa\JJ	.
!	!LO:MO:null:mod=!LO&colon;TX&colon;a&colon;B&colon;t=Fine	!
!	!	!
!	!LO:TX:b:t=Fine:mod=	!
8c 8F\	8ff\	.
8r	8r	.
=3	=3	=3
*>B	*>B	*>B
8cL 8A 8F\	8f/	Hej,
8cJ 8A 8F\	4cc\	wios-
8cL 8F 8D\	.	.
8cJ 8F 8D\	(16a/LL	-na!
.	16b-/JJ)	.
=4	=4	=4
!	!	!LO:MO:mod=Hej,
8cL 8G 8E\	8cc\	hej,
8cJ 8G 8E\	4dd\	wios-
8cL 8B- 8E\	.	.
!	!	!LO:MO:mod=-na!
8cJ 8B- 8E\	8g/	-na
=5	=5	=5
*	*^	*
8c 8A 8F\	8b-/	4rcyyyy	Po-
!LO:TX:t=P:problem=skreślony akord	!	!	!
8r	8a/	.	-ra
!LO:TX:t=P:problem=dopisane ołówkiem 8A	!	!LO:N:xstem	!
!	!	!LO:MO:mod=8ryy	!
8C\L	8cc\	8f	to
!	!	!LO:N:cue	!
8B-J 8C\	(<16a/LL	8e\	ra-
.	16g/JJ)	.	.
*	*v	*v	*
=6	=6	=6
8AL 8F\	8f/	-do-
!	!	!LO:MO:mod=-sna.
8AJ 8F\	4c/	-sna
8A 8F\	.	.
8r	8cc\	We-
!!LO:LB:g=original
=7	=7	=7
8r	16b-/LL	-so-
.	16a/JJ	.
4B- 4C\	4g 4e/	-ła
8r	8cc\	a
=8	=8	=8
!LO:TX:t=P:problem=skreślony dźwięk	!	!
8r	16a/LL	ho-
.	16g/JJ	.
!	!	!LO:MO:mod=-ża,
4G 4D;\	4f 4Bn;/	-ża
!	!	!LO:MO:mod=pro-
8r	(16e/LL	Pro-
.	16f/JJ)	.
=9	=9	=9
!LO:TX:t=P:problem=skreślony dźwięk	!LO:TX:t=P:problem=skreślone 8e	!
4r	8g/L	-mien-
.	8c/J	.
8G 8C\	8.b- 8.e/	-na
8r	.	.
.	16a/	jak
=10	=10	=10
!	!LO:TX:a:B:t=D.S. [segno]	!
8B-L 8F\	8g 8e/	zo-
8AJ 8F\	4f/	-rza.
8AL 8F\	.	.
8B-J 8F\	8r	.
=:|!	=:|!	=:|!
*-	*-	*-
!!!system-decoration: {(s1,s2)}
!!!RDF**kern: < = below
!!!ENC: Marta Lawrence
!!!END: 2021-06-02
!!!ENC: Mateusz Solarz
!!!END: 2021-05-11
!!!ENC-modern: Krzysztof Stępień
!!!END-modern: 2022-09-28
!!!filter-modern: shed -e "s/:t=P:/:T=P:/L"
!!!filter-modern: shed -e "s/^(\d+[\/\\]right)/$1yy/I; s/^(\d+[\/\\]left)/$1yy/I"
!!!filter-modern: humtr -p
!!!filter-modern: shed -e "s/yy//"
!!!filter-modern: shed -k -e "s/\(y(?!y)/(/"
!!!filter-modern: shed -k -e "s/([\(\)\[\]])[><]/$1/g"
!!!filter-modern: shed -k -e “s/([()[]_])[><]/$1/g”
!!!filter-modern: tie -s
!!!filter-modern: shed -e "s/^(X?)rep$/$1REP/I"
!!!filter-modern: shed -k -e "s/^(X?)tuplet/$1TUPLET/I"
!!!filter-modern: shed -e "s/LO:DY:(a|b|rj)/LO:dy:$1/L"
!!!filter-modern: shed -e "s/LO:HP:(a|b)/LO:hp:$1/L"
!!!filter-modern: shed -k -e "s/r[a-gA-G]+/r/D"
!!!filter-modern: shed -k -e "s/([^a-gA-Gn#-])[<>]/$1/g"
!!!filter-modern: sic -sq
!!!filter-modern: autostem -r
!!!filter-modern: modori -m
!!!YEC: Copyright 2023 Narodowy Instytut Fryderyka Chopina (https://polishscores.org)
!!!YEM: License CC-BY-4.0 (https://creativecommons.org/licenses/by/4.0)
